!!!OTL: 190a. Stiefmutter.
!!!ODT: 1843
!!!ARE: Europa, Mitteleuropa, Deutschland, Bueckeburg
!!!SCT: E0190
!!!TXL: @@DE
!!!YEM: Copyright 1995, estate of Helmut Schaffrath.
**kern	**text
*ICvox	*
*M3/4	*
*k[b-]	*
*F:	*
!LO:TX:a:t=Sehe mäßig.	!
!LO:TX:a:t=Mündlich aus der Gegend v. Bückeburg. 1843.	!
{8c	Kind,
8c	wo
=1	=1
4f	biſt
4f	du
8g	hin
8b-	ge-
=2	=2
4a	-we-
4f}	-ſen?
{4a	Kind,
=3	=3
4.g	ſa-
8f	-ge
8eL	du's
8gJ	.
=4	=4
4f	mir!
4r}	.
{4c	Nach
=5	=5
4f	mei-
4f	-ner
8g	Mut-
8g	-ter
=6	=6
4a	Schwe-
4f}	-ſter,
{4a	wie
=7	=7
4.g	we-
8f	-he
4e	iſt
=8	=8
4f	mir!
4r}	.
==	==
!!!AGN: erzaehlendes Volks - Lied, Sage, Familien - Geschichte
!!!ONB: ESAC (Essen Associative Code) Database: ERK1
!!!AMT: simple triple
!!!AIN: vox
!!!EED: Helmut Schaffrath
!!!EEV: 1.0
!!!GTL: Denkwuerdige Familiengeschichten
!!!URL-scan: https://rosdok.uni-rostock.de/mcrviewer/recordIdentifier/rosdok_ppn745146120/iview2/phys_0645.iview2?x=-128.7727644188933&y=1146.2225597342476&scale=0.5870222003877484&rotation=0&layout=singlePageLayout
!!!ENC: Anna Maria Matuszewska
!!!EEV: 2024/05/12
*-	*-
